X: 19
I: linebreak $
T: Furioso all'Italiana
P: Ax10 Bx3 C Bx2 C B
K: G major
M: 4/4
L: 1/8
BA |: 
P: A
"G"B2B2 c2A2 | B2B2 B2dc | BGAB GFEG | "D"A2A2 A2A2 | A2A2 G2F2 | "C"E2ED EFG2 | 
"Dsus4"A2G2 G2GF |  [1-9 "G"G2G2 G2BA :|] 
M: 3/4
 [10 "G"G4G2 | "G"G4B2 :: 
P: B
"G"B3AB2 | "Am"c3Bc2 | "G"B4B2 | B4d2 | 
"Am"c4B2 | "D"A4G2 | A4A2 | A4A2 | A3GA2 | "Em"G4F2 | 
"C"E4E2 | E3FG2 | "D"A4G2 | "C"G4"D"F2 | "G"G4G2 |  [1-2 G4B2 :|] 
 [3 "G"G6 :| 
M: 3/2
P: C
"G"B4B4A2B2 | "C"c4c4c4 | c4c8 | "G"B4B4B4 | "Em"G4"F"A4"G"B4 | "C"c4c2B2A2G2 | 
F2E2"Dsus4"G4F4 | "G"G4G4z2"^To Bx2 C B"B2 |] 

